X: 529
T: Shuzhuang tai
L: 1/8
M: 2/4
K: F
F F F D [I:setbarnb 1]| 
c4 | 
d f c A | 
G FG2 | 
G Ac2 | 
f c A G | 
F C F D | 
C4 | 
D C/ D/F2 | 
G F/ G/A2 | 
G/ A/ G/ F/ F C | 
D4 | 
d f A c | 
d f c A | 
G G/ A/ F G | 
c G/ c/ G D | 
C4 | 
d f A c | 
d f c A | 
G G/ A/ F G | 
c G/ c/ G D | 
C4 |]

@@@ Tune index: 9403
